X:1

T:Whistling Rufus

M:2/4

L:1/8

S:Viola “Mom” Ruth, 1948

Z:AK/Fiddler’s Companion

K:G

(3D/E/F/|G(3A/B/c/ d(e/f/)|gge<d|G>A B/A/G/B/|(d2 d) (3D/E/F/|

G(3A/B/c/ d(e/f/)|gge<d|a>b a/g/e/g/|(a2 a) (3D/E/F/|G(3A/B/c/ d(e/f/)|

gge<d|G>A B/A/G/B/|d3d|g/gg/ ge|d/dd/ dc|B2A2|G3B||

|:AG d2|d3e|dB F2|F3c|BA e2|e3 (e/f/)|(g/f/e) B2|B3B|AG d2|

d3e|d>B c2|c3c|BG B2|cB E2|1 F2(G2|G3)B:|2 F2(G2|G3||

 

WHISTLING THIEF [1], THE. English, Scottish; Jig. England, Northumberland. G Major. Standard tuning. AABB. Kerr (Merry Melodies), vol. 3; No. 253, pg. 28. Williamson (English, Welsh, Scottish and Irish Fiddle Tunes), 1976; pg. 29.

 

WHISTLING THIEF [2], THE. AKA and see “Cuaichin Aindi,” “Cucanandy.” Irish, Slip Jig. The title comes from a song to the air by Samuel Lover. Chulrua – “Barefoot on the Altar.”

                       

WHIT MONDAY. English, Reel. D Major. Standard tuning. AAB. Composed by musician, teacher, collector and composer Pat Shaw. See note for “Clarance House” for more. Barnes (English Country Dance Tunes, vol. 2), 2005; pg. 20.

 

WHITBY ABBEY. English, Reel. England, Northumberland. D Major. Standard tuning. AAB. Seattle (William Vickers), 1987, Part 3; No. 405.

                       

WHITBY PIER. English, Jig. England, Northumberland. D Major. Standard tuning. AABB. Seattle (William Vickers), 1987, Part 3; No. 406.

                       


WHITE-BACKED BROWN COW, THE (Druimfionn Donn Oilir). AKA and see "Colly, My Cow." Irish. The air was composed in 1648. A version was rendered into English by the Irish actor Thomas Dogget and sung by him in 1690 as "Colly My Cow."

                       

WHITE BLACKBIRD, THE. Irish, Air. A Dorian. Standard tuning. AABB.

